X: 730
T: Fan tewu
%%abc-version 2.0
%%abcx-abcm2ps-target-version 5.9.1 (29 Sep 2008)
%%abc-creator hum2abc beta
%%abcx-conversion-date 2013/10/02 07:52:30
%%abc-edited-by Helmut Schaffrath
%%humdrum-veritas 2511978913
%%humdrum-veritas-data 3110851932
%%continueall 1
%%barnumbers 0
L: 1/8
M: 2/4
K: A
z B [I:setbarnb 1]| 
B2e d | 
cB2e | 
B2A2- | 
A> A G F | 
B2c B | 
A G F C | 
E4 | 
B A G F | 
E FA2 | 
B A G F | 
A G F C | 
E4 | 
B A G F | 
E FA2 | 
B A G F | 
E FA2 | 
B B z c | 
A B c e | 
c F A G | 
F CE2- | 
E2 |]  



